X:1
T:Whom should I fear, since God to me
T:Joseph Stephenson
T:p42, Church Harmony Sacred to Devotion, 4th ed. London: [c1763-1771]
T:This edition by Edmund Gooch released into the public domain, October 2013.
T:Whom should I fear, since God to me
T:Ps. 27th.
C:Joseph Stephenson
Z:p42, Church Harmony
Z:Sacred to Devotion, 4th ed.
Z:London: [c1763-1771]
%%score [ 1 2 3 4 ]
L:1/8
M:3/4
K:Ab
V:1 treble nm="SOPRANO" snm="S."
V:2 treble nm="ALTO" snm="A."
V:3 treble-8 transpose=-12 nm="TENOR" snm="T."
V:4 bass nm="BASS" snm="B."
V:1
 c2 | B4 c2 | (A3 B) c2 | B4 (cd) | e4 e2 | (c3 B) (A>B) | B4 B2 | G4 (AB) | c4 (BA) | G4 A2 | %10
w: For|there I|may _ with|com- fort _|rest In|times _ of _|deep dis-|tress; And _|safe, as _|on a|
w: Whom|should I|fear, _ since|God to _|me Is|sa- * ving _|health and|light? Since _|strong- ly _|he my|
w: Hence-|forth with-|in _ his|house to _|dwell I|ear- * nest- *|ly de-|sire, His _|wond- rous _|beau- ty|
 B4 (cd) | e4 G2 | (A3 B) c2 | d2 TB4 | c4 |] %15
w: rock, a- *|bide, In|that _ se-|cure re-|cess;|
w: life sup- *|ports, What|can _ my|soul af-|fright?|
w: there to _|view, And|of _ his|will en-|quire.|
V:2
 E2 | E4 E2 | A4 A2 | (F3 G) A2 | G4 E2 | E4 A2 | F4 F2 | G4 E2 | A4 F2 | E4 A2 | (F3 G) A2 | %11
w: For|there I|may with|com- * fort|rest In|times of|deep dis-|tress; And|safe, as|on a|rock, _ a-|
w: Whom|should I|fear, since|God _ to|me Is|sa- ving|health and|light? Since|strong- ly|he my|life _ sup-|
w: Hence-|forth with-|in his|house _ to|dwell I|ear- nest-|ly de-|sire, His|wond- rous|beau- ty|there _ to|
 G4 E2 | E4 A2 | F2 E4 | E4 |] %15
w: bide, In|that se-|cure re-|cess;|
w: ports, What|can my|soul af-|fright?|
w: view, And|of his|will en-|quire.|
V:3
 A2 | (e3 d) c2 | f4 e2 | d4 c2 | B4 B2 | A4 (cd) | e2 T=d4 | e4 e2 | f4 B2 | e4 A2 | d4 c2 | %11
w: For|there _ I|may with|com- fort|rest In|times of _|deep dis-|tress; And|safe, as|on a|rock, a-|
w: Whom|should _ I|fear, since|God to|me Is|sa- ving _|health and|light? Since|strong- ly|he my|life sup-|
w: Hence-|forth _ with-|in his|house to|dwell I|ear- nest- *|ly de-|sire, His|wond- rous|beau- ty|there to|
 B4 (e>d) | (c>d cB) A2 | B2 TG4 | A4 |] %15
w: bide, In _|that _ _ _ se-|cure re-|cess;|
w: ports, What _|can _ _ _ my|soul af-|fright?|
w: view, And _|of _ _ _ his|will en-|quire.|
V:4
 A,2 | G,4 A,2 | F,4 C,2 | D,4 A,,2 | E,4 E,2 | A,4 F,2 | B,4 B,,2 | E,4 A,2 | %8
w: For|there I|may with|com- fort|rest In|times of|deep dis-|tress; And|
w: Whom|should I|fear, since|God to|me Is|sa- ving|health and|light? Since|
w: Hence-|forth with-|in his|house to|dwell I|ear- nest-|ly de-|sire, His|
"^The alto part is printed in the alto clef in the source.The D§ in the tenor part on beat 2 of bar 6 is indicated with a # sign in the source.The text is indicated in the source by the heading ‘Ps. 27th.’ and the opening words, ‘Whom should I fear &c.’:four verses have been selected from this text and underlaid editorially." F,4 B,2 | %9
w: safe, as|
w: strong- ly|
w: wond- rous|
 E,4 F,2 | D,4 A,,2 | E,4 E,2 | (A,>B, A,G,) F,2 | D,2 E,4 | A,,4 |] %15
w: on a|rock, a-|bide, In|that _ _ _ se-|cure re-|cess;|
w: he my|life sup-|ports, What|can _ _ _ my|soul af-|fright?|
w: beau- ty|there to|view, And|of _ _ _ his|will en-|quire.|

